;FLAVOR:Marlin
;TIME:3146
;Filament used: 4.08011m
;Layer height: 0.2
;Generated with Cura_SteamEngine 4.0.0
M140 S70
M105
M190 S70
M104 S240
M105
M109 S240
M82 ;absolute extrusion mode
G21 ;metric values
G90 ;absolute positioning
M82 ;set extruder to absolute mode
M107 ;start with the fan off
G28 X0 Y0 ;move X/Y to min endstops
G28 Z0 ;move Z to min endstops
G1 Z15.0 F9000 ;move the platform down 15mm
G92 E0 ;zero the extruded length
G1 F200 E3 ;extrude 3mm of feed stock
G92 E0 ;zero the extruded length again
G1 F9000
;Put printing message on LCD screen
M117 Printing...
G92 E0
G1 F1500 E-6.5
;LAYER_COUNT:238
;LAYER:-5
M107
G0 F7200 X112.815 Y102.381 Z0.36
;TYPE:SUPPORT-INTERFACE
G1 F1500 E0
G1 F1350 X113.013 Y102.173 E0.03439
G1 X113.215 Y101.984 E0.06751
G1 X113.622 Y101.654 E0.13025
G1 X115.293 Y100.443 E0.37734
G1 X115.636 Y100.225 E0.42601
G1 X115.877 Y100.092 E0.45897
G1 X116.149 Y99.965 E0.49491
G1 X116.419 Y99.858 E0.52968
G1 X116.679 Y99.774 E0.5624
G1 X116.98 Y99.697 E0.5996
G1 X117.271 Y99.643 E0.63504
G1 X117.543 Y99.609 E0.66786
G1 X118.049 Y99.582 E0.72853
G1 X120.142 Y99.586 E0.97914
G1 X120.519 Y99.61 E1.02438
G1 X120.817 Y99.647 E1.06033
G1 X121.101 Y99.702 E1.09497
G1 X121.392 Y99.778 E1.13098
G1 X121.65 Y99.862 E1.16347
G1 X121.929 Y99.973 E1.19942
G1 X122.187 Y100.095 E1.23359
G1 X122.443 Y100.237 E1.26865
G1 X122.866 Y100.511 E1.32899
G1 X124.556 Y101.746 E1.57962
G1 X124.86 Y101.998 E1.6269
G1 X125.056 Y102.184 E1.65925
G1 X125.262 Y102.403 E1.69525
G1 X125.454 Y102.636 E1.7314
G1 X125.623 Y102.87 E1.76596
G1 X125.765 Y103.095 E1.79782
G1 X125.923 Y103.386 E1.83747
G1 X126.029 Y103.616 E1.86779
G1 X126.209 Y104.078 E1.92716
G1 X126.817 Y105.946 E2.16238
G1 X126.951 Y106.448 E2.22459
G1 X127.003 Y106.723 E2.2581
G1 X127.043 Y107.035 E2.29577
G1 X127.059 Y107.309 E2.32863
G1 X127.059 Y107.605 E2.36407
G1 X127.041 Y107.884 E2.39755
G1 X127.003 Y108.183 E2.43364
G1 X126.945 Y108.481 E2.46999
G1 X126.823 Y108.941 E2.52697
G1 X126.172 Y110.929 E2.77744
G1 X126.018 Y111.316 E2.82732
G1 X125.56 Y112.282 E2.95532
G1 X125.579 Y112.282 E2.9576
G1 X125.408 Y112.814 E3.02451
G1 X125.28 Y113.485 E3.1063
G1 X125.239 Y114.167 E3.18811
G1 X125.285 Y114.848 E3.26983
G1 X125.415 Y115.518 E3.35155
G1 X125.629 Y116.167 E3.43338
G1 X125.924 Y116.782 E3.51505
G1 X126.296 Y117.36 E3.59735
G1 X126.879 Y118.026 E3.70333
G1 X127.178 Y118.315 E3.75312
G1 X127.35 Y118.502 E3.78355
G1 X127.556 Y118.758 E3.82289
G1 X127.69 Y118.948 E3.85073
G1 X127.877 Y119.265 E3.8948
G1 X128.141 Y119.802 E3.96645
G1 X128.217 Y119.977 E3.98929
G1 X128.563 Y120.89 E4.1062
G1 X128.721 Y121.385 E4.16841
G1 X128.779 Y121.627 E4.19821
G1 X128.976 Y122.267 E4.27839
G1 X129.26 Y122.893 E4.3607
G1 X129.54 Y123.327 E4.42254
G1 X129.537 Y123.332 E4.42324
G1 X129.922 Y123.903 E4.5057
G1 X130.077 Y124.166 E4.54225
G1 X130.212 Y124.432 E4.57797
G1 X130.397 Y124.873 E4.63523
G1 X131.104 Y126.833 E4.88471
G1 X131.217 Y127.217 E4.93264
G1 X131.282 Y127.506 E4.96811
G1 X131.325 Y127.781 E5.00144
G1 X131.417 Y128.757 E5.11882
G1 X131.567 Y129.419 E5.20009
G1 X131.724 Y129.881 E5.25852
G1 X131.847 Y130.203 E5.29979
G1 X132.121 Y131.045 E5.40581
G1 X132.264 Y131.575 E5.47154
G1 X132.316 Y131.85 E5.50505
G1 X132.356 Y132.162 E5.54272
G1 X132.372 Y132.435 E5.57546
G1 X132.371 Y132.743 E5.61234
G1 X132.355 Y133.001 E5.64329
G1 X132.315 Y133.312 E5.68084
G1 X132.258 Y133.604 E5.71646
G1 X132.125 Y134.095 E5.77737
G1 X131.795 Y135.096 E5.90357
G1 X131.656 Y135.446 E5.94866
G1 X131.532 Y135.71 E5.98358
G1 X131.396 Y135.957 E6.01735
G1 X131.237 Y136.206 E6.05272
G1 X131.072 Y136.432 E6.08623
G1 X130.874 Y136.67 E6.1233
G1 X130.697 Y136.858 E6.15421
G1 X130.462 Y137.076 E6.19259
G1 X130.022 Y137.427 E6.25999
G1 X129.253 Y137.967 E6.3725
G1 X128.794 Y138.254 E6.43732
G1 X128.557 Y138.38 E6.46946
G1 X128.278 Y138.504 E6.50601
G1 X128.019 Y138.602 E6.53917
G1 X127.718 Y138.694 E6.57686
G1 X127.451 Y138.757 E6.6097
G1 X127.119 Y138.815 E6.65006
G1 X126.192 Y138.934 E6.76197
G1 X125.589 Y139.095 E6.8367
G1 X125.586 Y139.089 E6.8375
G1 X125.162 Y139.254 E6.89198
G1 X124.963 Y139.34 E6.91793
G1 X124.529 Y139.545 E6.97541
G1 X124.531 Y139.55 E6.97605
G1 X124.198 Y139.748 E7.02244
G1 X123.844 Y139.977 E7.07292
G1 X123.589 Y140.121 E7.10799
G1 X122.814 Y140.494 E7.21097
G1 X122.581 Y140.623 E7.24286
G1 X122.313 Y140.748 E7.27827
G1 X122.037 Y140.857 E7.3138
G1 X121.894 Y140.904 E7.33182
G1 X121.36 Y141.112 E7.40044
G1 X120.959 Y141.294 E7.45317
G1 X120.675 Y141.402 E7.48955
G1 X120.403 Y141.486 E7.52363
G1 X120.122 Y141.554 E7.55825
G1 X119.811 Y141.608 E7.59605
G1 X119.558 Y141.638 E7.62655
G1 X119.462 Y141.642 E7.63806
G1 X118.388 Y141.78 E7.76771
G1 X118.082 Y141.799 E7.80442
G1 X118.082 Y141.793 E7.80514
G1 X117.2 Y141.906 E7.91161
G1 X116.759 Y141.932 E7.96451
G1 X111.442 Y141.991 E8.60118
G1 X110.92 Y141.969 E8.66374
G1 X110.62 Y141.934 E8.69991
G1 X110.358 Y141.886 E8.7318
G1 X110.043 Y141.809 E8.77063
G1 X109.785 Y141.728 E8.80301
G1 X109.404 Y141.573 E8.85226
G1 X109.139 Y141.478 E8.88596
G1 X109.146 Y141.46 E8.88828
G1 X108.313 Y141.186 E8.99327
G1 X108.04 Y141.078 E9.02843
G1 X107.781 Y140.955 E9.06276
G1 X107.526 Y140.814 E9.09765
G1 X107.093 Y140.533 E9.15945
G1 X105.663 Y139.492 E9.37124
G1 X105.248 Y139.154 E9.43533
G1 X105.045 Y138.961 E9.46887
G1 X104.849 Y138.752 E9.50317
G1 X104.662 Y138.525 E9.53839
G1 X104.487 Y138.282 E9.57425
G1 X104.336 Y138.042 E9.6082
G1 X104.19 Y137.773 E9.64484
G1 X104.07 Y137.518 E9.67859
G1 X103.887 Y137.037 E9.74021
G1 X103.352 Y135.391 E9.94744
G1 X103.214 Y134.88 E10.01082
G1 X103.155 Y134.575 E10.04802
G1 X103.048 Y133.709 E10.1525
G1 X103.04 Y133.71 E10.15346
G1 X102.881 Y133.074 E10.23196
G1 X102.632 Y132.438 E10.31374
G1 X102.308 Y131.844 E10.39476
G1 X102.116 Y131.56 E10.4358
G1 X101.896 Y131.256 E10.48074
G1 X101.748 Y131.02 E10.51409
G1 X101.608 Y130.763 E10.54913
G1 X101.485 Y130.499 E10.58401
G1 X101.354 Y130.167 E10.62674
G1 X101.15 Y129.595 E10.69946
G1 X101.133 Y129.601 E10.70161
G1 X101.059 Y129.414 E10.72569
G1 X100.728 Y128.817 E10.80743
G1 X100.325 Y128.266 E10.88917
G1 X99.851 Y127.766 E10.97166
G1 X99.046 Y127.152 E11.09289
G1 X98.425 Y126.707 E11.18436
G1 X98.015 Y126.374 E11.24761
G1 X97.789 Y126.16 E11.28487
G1 X97.606 Y125.963 E11.31707
G1 X97.41 Y125.725 E11.35399
G1 X97.248 Y125.501 E11.38709
G1 X97.089 Y125.247 E11.42297
G1 X96.943 Y124.979 E11.45951
G1 X96.832 Y124.741 E11.49095
G1 X96.691 Y124.382 E11.53713
G1 X96.462 Y123.685 E11.62498
G1 X96.329 Y123.185 E11.68693
G1 X96.275 Y122.902 E11.72143
G1 X96.236 Y122.598 E11.75813
G1 X96.22 Y122.323 E11.79111
G1 X96.22 Y122.027 E11.82655
G1 X96.238 Y121.748 E11.86003
G1 X96.276 Y121.449 E11.89612
G1 X96.335 Y121.145 E11.93319
G1 X96.46 Y120.681 E11.99073
G1 X96.651 Y120.096 E12.06442
G1 X96.839 Y119.608 E12.12704
G1 X96.966 Y119.339 E12.16265
G1 X97.117 Y119.065 E12.20011
G1 X97.252 Y118.853 E12.23021
G1 X97.428 Y118.612 E12.26594
G1 X97.626 Y118.374 E12.30301
G1 X97.804 Y118.186 E12.33401
G1 X98.05 Y117.957 E12.37425
G1 X98.278 Y117.77 E12.40956
G1 X98.47 Y117.627 E12.43822
G1 X98.673 Y117.494 E12.46728
G1 X99.418 Y117.034 E12.57212
G1 X99.739 Y116.861 E12.61578
G1 X100.02 Y116.731 E12.65285
G1 X100.325 Y116.613 E12.69201
G1 X100.618 Y116.522 E12.72875
G1 X101.292 Y116.287 E12.81422
G1 X101.671 Y116.125 E12.86357
G1 X101.936 Y116.031 E12.89723
G1 X102.218 Y115.95 E12.93237
G1 X102.484 Y115.891 E12.96499
G1 X102.76 Y115.848 E12.99844
G1 X103.014 Y115.826 E13.02896
G1 X103.812 Y115.719 E13.12537
G1 X104.109 Y115.702 E13.16099
G1 X104.772 Y115.619 E13.24099
G1 X105.663 Y115.403 E13.35077
G1 X105.94 Y115.36 E13.38433
G1 X106.81 Y115.277 E13.48898
G1 X106.808 Y115.264 E13.49055
G1 X107.459 Y115.115 E13.57051
G1 X108.099 Y114.879 E13.65219
G1 X108.705 Y114.564 E13.73397
G1 X109.266 Y114.174 E13.81578
G1 X109.773 Y113.719 E13.89734
G1 X110.219 Y113.201 E13.97919
G1 X110.596 Y112.632 E14.06092
G1 X110.899 Y112.019 E14.14279
G1 X111.121 Y111.373 E14.22458
G1 X111.261 Y110.705 E14.3063
G1 X111.314 Y110.024 E14.38809
G1 X111.281 Y109.341 E14.46997
G1 X111.146 Y108.604 E14.55968
G1 X111.106 Y108.452 E14.5785
G1 X111.054 Y108.177 E14.61201
G1 X111.015 Y107.871 E14.64895
G1 X110.999 Y107.597 E14.68181
G1 X110.999 Y107.301 E14.71725
G1 X111.017 Y107.022 E14.75073
G1 X111.055 Y106.721 E14.78706
G1 X111.113 Y106.425 E14.82317
G1 X111.235 Y105.965 E14.88015
G1 X111.886 Y103.977 E15.13063
G1 X112.035 Y103.602 E15.17894
G1 X112.163 Y103.332 E15.21472
G1 X112.293 Y103.097 E15.24688
G1 X112.457 Y102.839 E15.28348
G1 X112.631 Y102.601 E15.31878
G1 X112.815 Y102.381 E15.35313
G0 F7200 X113.6 Y101.671
G1 F1350 X113.6 Y141.968 E20.17815
G0 F7200 X112 Y141.985
G1 F1350 X112 Y103.69 E24.76346
G0 F7200 X115.2 Y100.51
G1 F1350 X115.2 Y141.95 E29.72534
G0 F7200 X116.8 Y141.93
G1 F1350 X116.8 Y99.743 E34.77666
G0 F7200 X118.4 Y99.583
G1 F1350 X118.4 Y141.779 E39.82906
G0 F7200 X120 Y141.576
G1 F1350 X120 Y99.586 E44.85679
G0 F7200 X121.6 Y99.846
G1 F1350 X121.6 Y141.019 E49.7867
G0 F7200 X123.2 Y140.309
G1 F1350 X123.2 Y100.756 E54.52264
G0 F7200 X124.8 Y101.949
G1 F1350 X124.8 Y139.417 E59.00893
G0 F7200 X126.4 Y138.908
G1 F1350 X126.4 Y117.479 E61.57476
G0 F7200 X128 Y119.516
G1 F1350 X128 Y138.608 E63.86077
G0 F7200 X129.6 Y137.724
G1 F1350 X129.6 Y123.426 E65.57276
G0 F7200 X131.2 Y127.16
G1 F1350 X131.2 Y136.257 E66.66201
G0 F7200 X110.4 Y141.893
G1 F1350 X110.4 Y112.927 E70.13029
G0 F7200 X108.8 Y114.497
G1 F1350 X108.8 Y141.346 E73.3451
G0 F7200 X107.2 Y140.602
G1 F1350 X107.2 Y115.174 E76.38976
G0 F7200 X105.6 Y115.418
M104 S220
G1 F1350 X105.6 Y139.44 E79.26607
G0 F7200 X104 Y137.334
G1 F1350 X104 Y115.708 E81.85549
G0 F7200 X102.4 Y115.909
G1 F1350 X102.4 Y132.012 E83.7836
G0 F7200 X100.8 Y128.946
G1 F1350 X100.8 Y116.458 E85.27887
G0 F7200 X99.2 Y117.168
G1 F1350 X99.2 Y127.269 E86.48833
G0 F7200 X97.6 Y125.955
G1 F1350 X97.6 Y118.405 E87.39234
G0 F7200 X126.4 Y110.233
G1 F1350 X126.4 Y104.665 E88.05904
G0 F7200 X97.41 Y125.724
;TIME_ELAPSED:42.973403
;LAYER:-4
M140 S70
G0 X97.41 Y125.724 Z0.66
;TYPE:SUPPORT
G1 F1350 X97.606 Y125.962 E88.0898
G1 X97.788 Y126.159 E88.11656
G1 X98.014 Y126.372 E88.14755
G1 X98.409 Y126.693 E88.19834
G1 X97.332 Y125.616 E88.35031
G1 X97.248 Y125.5 E88.3646
G1 X97.089 Y125.246 E88.3945
G1 X96.942 Y124.978 E88.425
G1 X96.831 Y124.74 E88.45121
G1 X96.691 Y124.381 E88.48965
G1 X96.462 Y123.684 E88.56286
G1 X96.333 Y123.203 E88.61255
G1 X115.079 Y141.949 E91.25781
G1 X116.478 Y141.934 E91.39741
G1 X96.243 Y121.699 E94.25279
G1 X96.276 Y121.447 E94.27815
G1 X96.334 Y121.144 E94.30893
G1 X96.459 Y120.679 E94.35698
G1 X96.503 Y120.545 E94.37105
G1 X117.787 Y141.829 E97.37445
G1 X118.081 Y141.798 E97.40395
G1 X118.388 Y141.779 E97.43464
G1 X119.064 Y141.692 E97.50265
G1 X96.883 Y119.51 E100.6327
G1 X96.965 Y119.338 E100.65171
G1 X97.116 Y119.064 E100.68293
G1 X97.251 Y118.852 E100.70801
G1 X97.415 Y118.628 E100.73571
G1 X120.297 Y141.51 E103.9646
G1 X120.403 Y141.484 E103.97549
G1 X120.674 Y141.401 E104.00377
G1 X120.958 Y141.293 E104.03409
G1 X121.326 Y141.125 E104.07446
G1 X98.109 Y117.908 E107.35063
G1 X98.278 Y117.769 E107.37246
G1 X98.469 Y117.626 E107.39627
G1 X98.673 Y117.493 E107.42057
G1 X98.942 Y117.327 E107.45211
G1 X122.346 Y140.731 E110.75466
G1 X122.581 Y140.622 E110.78051
G1 X122.813 Y140.492 E110.80705
G1 X123.291 Y140.262 E110.85998
G1 X99.842 Y116.813 E114.16888
G1 X100.02 Y116.73 E114.18848
G1 X100.325 Y116.612 E114.22111
G1 X100.618 Y116.521 E114.25173
G1 X100.875 Y116.432 E114.27886
G1 X124.193 Y139.749 E117.56921
G0 F7200 X124.198 Y139.747
G1 F1350 X124.529 Y139.543 E117.60801
G1 X124.962 Y139.339 E117.65577
G1 X125.126 Y139.268 E117.6736
G1 X101.9 Y116.042 E120.95104
G1 X101.935 Y116.029 E120.95477
G1 X102.218 Y115.949 E120.98411
G1 X102.483 Y115.89 E121.0112
G1 X102.76 Y115.847 E121.03917
G1 X103.014 Y115.825 E121.06461
G1 X103.087 Y115.815 E121.07196
G1 X126.203 Y138.93 E124.33381
G1 X127.118 Y138.814 E124.42584
G1 X127.443 Y138.756 E124.45878
G1 X104.356 Y115.669 E127.7166
G1 X104.772 Y115.617 E127.75844
G1 X105.534 Y115.433 E127.83665
G1 X128.502 Y138.402 E131.07776
G1 X128.556 Y138.378 E131.08365
G1 X128.793 Y138.253 E131.11039
G1 X129.253 Y137.966 E131.16449
G1 X129.387 Y137.872 E131.18082
G1 X106.793 Y115.278 E134.36908
G1 X106.809 Y115.276 E134.37069
G1 X106.807 Y115.263 E134.372
G1 X107.459 Y115.114 E134.43873
G1 X107.886 Y114.957 E134.48413
G1 X130.207 Y137.278 E137.63386
G1 X130.461 Y137.074 E137.66637
G1 X130.696 Y136.856 E137.69835
G1 X130.874 Y136.669 E137.72411
G1 X130.937 Y136.593 E137.73396
G1 X108.824 Y114.481 E140.85428
G1 X109.265 Y114.172 E140.90801
G1 X109.616 Y113.859 E140.95493
G1 X131.509 Y135.751 E144.0442
G1 X131.531 Y135.709 E144.04893
G1 X131.656 Y135.444 E144.07817
G1 X131.794 Y135.095 E144.11561
G1 X131.912 Y134.74 E144.15294
G1 X110.279 Y113.108 E147.20552
G1 X110.596 Y112.631 E147.26267
G1 X110.8 Y112.215 E147.3089
G1 X132.243 Y133.658 E150.33474
G1 X132.257 Y133.602 E150.3405
G1 X132.315 Y133.31 E150.3702
G1 X132.355 Y133 E150.40139
G1 X132.37 Y132.742 E150.42718
G1 X132.371 Y132.434 E150.45791
G1 X132.368 Y132.368 E150.4645
G1 X111.164 Y111.164 E153.45662
G1 X111.26 Y110.704 E153.5035
G1 X111.313 Y110.023 E153.57166
G1 X111.306 Y109.892 E153.58475
G1 X131.956 Y130.542 E156.49869
G1 X131.846 Y130.203 E156.53425
G1 X131.723 Y129.88 E156.56874
G1 X131.565 Y129.418 E156.61746
G1 X131.415 Y128.757 E156.68509
G1 X131.398 Y128.57 E156.70382
G1 X111.063 Y108.235 E159.57331
G1 X111.053 Y108.176 E159.57928
G1 X111.014 Y107.87 E159.61006
G1 X110.998 Y107.596 E159.63745
G1 X110.998 Y107.301 E159.66689
G1 X111.015 Y107.022 E159.69478
G1 X111.043 Y106.8 E159.7171
G1 X131.115 Y126.873 E162.54955
G1 X131.103 Y126.833 E162.55372
G1 X130.396 Y124.872 E162.76171
G1 X130.3 Y124.643 E162.78649
G1 X111.329 Y105.672 E165.4635
G1 X111.678 Y104.607 E165.57533
G1 X128.814 Y121.743 E167.9934
G1 X128.778 Y121.626 E168.00562
G1 X128.72 Y121.384 E168.03045
G1 X128.561 Y120.889 E168.08233
G1 X128.216 Y119.976 E168.17971
G1 X128.14 Y119.802 E168.19866
G1 X127.998 Y119.513 E168.23079
G1 X112.05 Y103.565 E170.48122
G1 X112.161 Y103.331 E170.50707
G1 X112.292 Y103.096 E170.53391
G1 X112.456 Y102.839 E170.56433
G1 X112.575 Y102.676 E170.58447
G1 X125.414 Y115.515 E172.39619
G1 X125.284 Y114.847 E172.46409
G1 X125.238 Y114.166 E172.5322
G1 X125.252 Y113.938 E172.55499
G1 X113.26 Y101.947 E174.24712
G1 X113.621 Y101.654 E174.29351
G1 X114.062 Y101.334 E174.34788
G1 X125.44 Y112.712 E175.95344
G1 X125.578 Y112.282 E175.9985
G1 X125.558 Y112.282 E176.0005
G1 X125.837 Y111.695 E176.06535
G1 X114.882 Y100.74 E177.61122
G1 X115.292 Y100.443 E177.66173
G1 X115.635 Y100.224 E177.70234
G1 X115.73 Y100.173 E177.7131
G1 X126.248 Y110.692 E179.19737
G1 X126.598 Y109.627 E179.30923
G1 X116.731 Y99.76 E180.70157
G1 X116.978 Y99.697 E180.727
G1 X117.27 Y99.643 E180.75663
G1 X117.542 Y99.608 E180.784
G1 X117.97 Y99.586 E180.82676
G1 X126.928 Y108.543 E182.09076
G1 X126.944 Y108.48 E182.09724
G1 X127.002 Y108.183 E182.12744
G1 X127.04 Y107.883 E182.15761
G1 X127.058 Y107.604 E182.18551
G1 X127.058 Y107.309 E182.21494
G1 X127.055 Y107.256 E182.22024
G1 X119.383 Y99.584 E183.30284
G1 X120.141 Y99.586 E183.37848
G1 X120.517 Y99.61 E183.41607
G1 X120.816 Y99.646 E183.44612
G1 X120.87 Y99.657 E183.45162
G1 X126.651 Y105.438 E184.26738
G1 X126.207 Y104.078 E184.41013
G1 X126.028 Y103.615 E184.45966
G1 X125.922 Y103.385 E184.48493
G1 X125.815 Y103.188 E184.5073
G1 X123.878 Y101.251 E184.78063
G1 X124.555 Y101.745 E184.86425
G1 X124.858 Y101.998 E184.90364
G1 X125.054 Y102.184 E184.9306
G1 X125.261 Y102.403 E184.96067
G1 X125.452 Y102.635 E184.99066
G1 X125.621 Y102.869 E185.01946
G1 X125.764 Y103.094 E185.04606
G0 F7200 X98.425 Y126.706
G1 F1350 X99.046 Y127.151 E185.12229
G1 X99.851 Y127.765 E185.22331
G1 X100.325 Y128.265 E185.29206
G1 X100.728 Y128.815 E185.36009
G1 X100.971 Y129.255 E185.41024
G1 X113.68 Y141.965 E187.20369
G1 X112.282 Y141.98 E187.34319
G1 X102.502 Y132.2 E188.72326
G1 X102.631 Y132.437 E188.75018
