;FLAVOR:Marlin
;TIME:6566
;Filament used: 8.66164m
;Layer height: 0.2
;Generated with Cura_SteamEngine 4.0.0
M140 S90
M105
M190 S90
M104 S240
M105
M109 S240
M82 ;absolute extrusion mode
G21 ;metric values
G90 ;absolute positioning
M82 ;set extruder to absolute mode
M107 ;start with the fan off
G28 X0 Y0 ;move X/Y to min endstops
G28 Z0 ;move Z to min endstops
G1 Z15.0 F9000 ;move the platform down 15mm
G92 E0 ;zero the extruded length
G1 F200 E3 ;extrude 3mm of feed stock
G92 E0 ;zero the extruded length again
G1 F9000
;Put printing message on LCD screen
M117 Printing...
G92 E0
G1 F1500 E-6.5
;LAYER_COUNT:256
;LAYER:0
M106 S35.7
M204 S5000
G0 F3600 X84.607 Y106.797 Z0.2
M204 S3000
;TYPE:SKIRT
G1 F1500 E0
G1 F600 X85.257 Y106.324 E0.02674
G1 X85.995 Y105.836 E0.05616
G1 X86.775 Y105.417 E0.08561
G1 X87.589 Y105.069 E0.11506
G1 X88.431 Y104.797 E0.14449
G1 X89.295 Y104.602 E0.17395
G1 X90.172 Y104.485 E0.20337
G1 X91.057 Y104.448 E0.23284
G1 X91.941 Y104.491 E0.26227
G1 X92.818 Y104.614 E0.29173
G1 X93.68 Y104.815 E0.32117
G1 X94.52 Y105.093 E0.3506
G1 X95.151 Y105.367 E0.37348
G1 X95.822 Y104.365 E0.41358
G1 X96.347 Y103.653 E0.44301
G1 X97.04 Y102.884 E0.47744
G1 X98.491 Y101.435 E0.54564
G1 X99.145 Y100.838 E0.57509
G1 X99.98 Y100.215 E0.60974
G1 X101.696 Y99.071 E0.67834
G1 X102.454 Y98.614 E0.70778
G1 X103.396 Y98.165 E0.74249
G1 X105.297 Y97.381 E0.81088
G1 X106.129 Y97.081 E0.8403
G1 X107.126 Y96.828 E0.87451
G1 X109.147 Y96.427 E0.94304
G1 X110.022 Y96.295 E0.97247
G1 X111.064 Y96.24 E1.00717
G1 X113.12 Y96.242 E1.07556
G1 X114.004 Y96.283 E1.10499
G1 X115.033 Y96.432 E1.13957
G1 X117.052 Y96.836 E1.20805
G1 X117.911 Y97.049 E1.23749
G1 X118.884 Y97.394 E1.27183
G1 X120.786 Y98.183 E1.34031
G1 X121.588 Y98.559 E1.36978
G1 X122.479 Y99.089 E1.40426
G1 X124.188 Y100.232 E1.47264
G1 X124.901 Y100.757 E1.50209
G1 X125.039 Y100.879 E1.50822
G1 X125.105 Y100.819 E1.51118
G1 X125.813 Y100.286 E1.54066
G1 X126.565 Y99.82 E1.57008
G1 X127.356 Y99.423 E1.59952
G1 X128.18 Y99.099 E1.62897
G1 X129.03 Y98.851 E1.65842
G1 X129.899 Y98.681 E1.68787
G1 X130.779 Y98.59 E1.71729
G1 X131.533 Y98.575 E1.74238
G1 X131.75 Y98.579 E1.74959
G1 X131.777 Y98.562 E1.75066
G1 X132.695 Y98.043 E1.78573
G1 X132.714 Y98.034 E1.78643
G1 X133.024 Y97.392 E1.81014
G1 X133.48 Y96.633 E1.83959
G1 X134.002 Y95.918 E1.86904
G1 X134.586 Y95.253 E1.89847
G1 X135.228 Y94.644 E1.9279
G1 X135.878 Y94.127 E1.95553
G1 X138.043 Y92.551 E2.04459
G1 X138.782 Y92.063 E2.07405
G1 X139.561 Y91.643 E2.10348
G1 X140.376 Y91.296 E2.13295
G1 X141.218 Y91.023 E2.16239
G1 X142.081 Y90.828 E2.19181
G1 X142.959 Y90.711 E2.22127
G1 X143.811 Y90.674 E2.24964
G1 X146.485 Y90.674 E2.33858
G1 X147.369 Y90.714 E2.36801
G1 X148.246 Y90.834 E2.39745
G1 X149.109 Y91.032 E2.4269
G1 X149.95 Y91.307 E2.45633
G1 X150.763 Y91.657 E2.48577
G1 X151.542 Y92.079 E2.51523
G1 X152.253 Y92.551 E2.54362
G1 X154.418 Y94.127 E2.63269
G1 X155.109 Y94.68 E2.66212
G1 X155.748 Y95.293 E2.69157
G1 X156.328 Y95.961 E2.721
G1 X156.847 Y96.678 E2.75044
G1 X157.298 Y97.44 E2.77989
G1 X157.679 Y98.239 E2.80933
G1 X157.969 Y99.017 E2.83694
G1 X158.053 Y99.276 E2.846
G1 X158.199 Y99.382 E2.852
G1 X158.89 Y99.935 E2.88144
G1 X159.529 Y100.548 E2.91089
G1 X160.109 Y101.216 E2.94031
G1 X160.628 Y101.933 E2.96975
G1 X161.079 Y102.695 E2.9992
G1 X161.46 Y103.494 E3.02865
G1 X161.796 Y104.418 E3.06135
G1 X162.69 Y107.318 E3.16228
G1 X162.912 Y108.175 E3.19172
G1 X163.056 Y109.048 E3.22115
G1 X163.121 Y109.931 E3.2506
G1 X163.106 Y110.816 E3.28004
G1 X163.011 Y111.696 E3.30948
G1 X162.837 Y112.564 E3.33892
G1 X162.647 Y113.228 E3.36189
G1 X161.163 Y117.805 E3.52193
G1 X160.852 Y118.633 E3.55135
G1 X160.468 Y119.431 E3.5808
G1 X160.013 Y120.19 E3.61023
G1 X159.618 Y120.732 E3.63254
G1 X159.21 Y121.361 E3.65748
G1 X158.664 Y122.058 E3.68692
G1 X158.097 Y122.662 E3.71448
G1 X157.324 Y123.42 E3.75049
G1 X156.665 Y124.011 E3.77993
G1 X155.993 Y124.514 E3.80785
G1 X151.402 Y127.652 E3.99281
G1 X150.649 Y128.118 E4.02226
G1 X149.858 Y128.514 E4.05168
G1 X149.402 Y128.693 E4.06797
G1 X149.201 Y128.801 E4.07556
G1 X148.387 Y129.148 E4.10499
G1 X147.545 Y129.421 E4.13443
G1 X147.269 Y129.484 E4.14385
G1 X146.628 Y129.705 E4.1664
G1 X146.468 Y129.745 E4.17189
G1 X145.956 Y129.953 E4.19027
G1 X145.496 Y130.093 E4.20626
G1 X145.206 Y130.23 E4.21693
G1 X144.375 Y130.535 E4.24637
G1 X143.837 Y130.679 E4.26489
G1 X143.271 Y130.904 E4.28515
G1 X142.423 Y131.156 E4.31458
G1 X141.555 Y131.33 E4.34402
G1 X141.308 Y131.357 E4.35228
G1 X141.216 Y131.402 E4.35569
G1 X140.389 Y131.717 E4.38512
G1 X140.171 Y131.778 E4.39265
G1 X139.918 Y131.901 E4.40201
G1 X139.089 Y132.213 E4.43147
G1 X138.236 Y132.449 E4.46091
G1 X137.908 Y132.508 E4.47199
G1 X137.216 Y132.715 E4.49602
G1 X136.348 Y132.891 E4.52547
G1 X136.045 Y132.924 E4.53561
G1 X135.963 Y132.943 E4.53841
G1 X135.775 Y133.004 E4.54498
G1 X135.418 Y133.156 E4.55789
G1 X134.576 Y133.429 E4.58733
G1 X133.713 Y133.625 E4.61676
G1 X132.835 Y133.742 E4.64622
G1 X131.951 Y133.779 E4.67565
G1 X131.067 Y133.736 E4.70509
G1 X130.19 Y133.614 E4.73454
G1 X129.328 Y133.413 E4.76398
G1 X128.487 Y133.135 E4.79344
G1 X127.675 Y132.782 E4.82289
G1 X126.899 Y132.358 E4.8523
G1 X126.163 Y131.865 E4.88176
G1 X126.159 Y131.862 E4.88193
G1 X125.847 Y132.173 E4.89658
G1 X125.193 Y132.77 E4.92603
G1 X124.352 Y133.398 E4.96094
G1 X122.637 Y134.54 E5.02947
G1 X121.878 Y134.997 E5.05894
G1 X120.946 Y135.441 E5.09328
G1 X119.043 Y136.227 E5.16176
G1 X118.211 Y136.527 E5.19117
G1 X117.206 Y136.782 E5.22566
G1 X115.186 Y137.182 E5.29415
G1 X114.31 Y137.315 E5.32362
G1 X113.272 Y137.369 E5.35819
G1 X111.217 Y137.367 E5.42654
G1 X110.333 Y137.326 E5.45597
G1 X109.309 Y137.177 E5.49039
G1 X107.29 Y136.774 E5.55887
G1 X106.43 Y136.562 E5.58833
G1 X105.451 Y136.215 E5.62287
G1 X103.548 Y135.425 E5.6914
G1 X102.746 Y135.049 E5.72086
G1 X101.854 Y134.518 E5.75539
G1 X100.148 Y133.376 E5.82367
G1 X99.54 Y132.91 E5.84915
G1 X99.36 Y133.283 E5.86293
G1 X98.904 Y134.042 E5.89238
G1 X98.382 Y134.757 E5.92182
G1 X97.797 Y135.421 E5.95125
G1 X97.155 Y136.031 E5.98071
G1 X96.507 Y136.546 E6.00824
G1 X94.691 Y137.868 E6.08295
G1 X93.952 Y138.356 E6.1124
G1 X93.173 Y138.776 E6.14184
G1 X92.359 Y139.123 E6.17127
G1 X91.516 Y139.396 E6.20074
G1 X90.653 Y139.591 E6.23017
G1 X89.776 Y139.708 E6.2596
G1 X88.923 Y139.745 E6.28799
G1 X86.679 Y139.745 E6.36263
G1 X85.795 Y139.705 E6.39206
G1 X84.918 Y139.585 E6.4215
G1 X84.055 Y139.387 E6.45095
G1 X83.214 Y139.112 E6.48038
G1 X82.889 Y138.972 E6.49215
G1 X82.198 Y139.141 E6.51581
G1 X81.205 Y139.285 E6.54918
G1 X80.599 Y139.341 E6.56943
G1 X80.039 Y139.467 E6.58852
G1 X79.162 Y139.584 E6.61795
G1 X78.317 Y139.62 E6.64608
G1 X77.064 Y139.62 E6.68775
G1 X76.18 Y139.58 E6.71718
G1 X75.303 Y139.46 E6.74662
G1 X74.44 Y139.262 E6.77607
G1 X73.599 Y138.987 E6.8055
G1 X72.786 Y138.637 E6.83494
G1 X72.007 Y138.215 E6.86441
G1 X71.296 Y137.743 E6.89279
G1 X70.281 Y137.004 E6.93455
G1 X69.589 Y136.451 E6.96401
G1 X68.951 Y135.838 E6.99344
G1 X68.37 Y135.17 E7.02289
G1 X67.852 Y134.452 E7.05233
G1 X67.401 Y133.69 E7.08179
G1 X67.02 Y132.891 E7.11123
G1 X66.729 Y132.112 E7.13889
G1 X66.342 Y130.922 E7.18051
G1 X66.107 Y130.068 E7.20997
G1 X65.949 Y129.197 E7.23941
G1 X65.871 Y128.316 E7.26882
G1 X65.873 Y127.43 E7.29829
G1 X65.954 Y126.549 E7.32772
G1 X66.115 Y125.678 E7.35718
G1 X66.342 Y124.86 E7.38541
G1 X66.729 Y123.67 E7.42703
G1 X67.041 Y122.842 E7.45646
G1 X67.426 Y122.044 E7.48593
G1 X67.881 Y121.285 E7.51537
G1 X68.403 Y120.57 E7.54481
G1 X68.988 Y119.906 E7.57424
G1 X69.63 Y119.296 E7.6037
G1 X70.281 Y118.778 E7.63137
G1 X71.296 Y118.039 E7.67313
G1 X72.034 Y117.551 E7.70255
G1 X72.814 Y117.132 E7.732
G1 X73.628 Y116.784 E7.76145
G1 X74.47 Y116.512 E7.79088
G1 X75.333 Y116.316 E7.82031
G1 X76.211 Y116.199 E7.84977
G1 X76.327 Y116.194 E7.85363
G1 X76.336 Y116.187 E7.85401
G1 X77.073 Y115.697 E7.88345
G1 X77.852 Y115.276 E7.9129
G1 X77.877 Y115.265 E7.91381
G1 X78.051 Y115.108 E7.9216
G1 X78.607 Y114.683 E7.94488
G1 X80.425 Y113.391 E8.01906
G1 X80.519 Y113.33 E8.02279
G1 X81.054 Y111.688 E8.08023
G1 X81.366 Y110.859 E8.10969
G1 X81.751 Y110.062 E8.13913
G1 X82.207 Y109.303 E8.16858
G1 X82.729 Y108.588 E8.19802
G1 X83.314 Y107.924 E8.22746
G1 X83.956 Y107.314 E8.25691
G1 X84.607 Y106.797 E8.28456
M204 S5000
G0 F3600 X84.842 Y107.12
M204 S3000
G1 F600 X85.492 Y106.647 E8.3113
G1 X86.216 Y106.17 E8.34013
G1 X86.981 Y105.762 E8.36897
G1 X87.78 Y105.425 E8.39781
G1 X88.606 Y105.164 E8.42662
G1 X89.453 Y104.98 E8.45545
G1 X90.314 Y104.875 E8.4843
G1 X91.181 Y104.849 E8.51315
G1 X92.046 Y104.904 E8.54198
G1 X92.902 Y105.038 E8.5708
G1 X93.743 Y105.25 E8.59964
G1 X94.56 Y105.539 E8.62847
G1 X95.292 Y105.876 E8.65527
G1 X96.154 Y104.588 E8.70682
G1 X96.669 Y103.891 E8.73564
G1 X97.323 Y103.167 E8.76809
G1 X98.774 Y101.718 E8.8363
G1 X99.415 Y101.134 E8.86514
G1 X100.202 Y100.548 E8.89777
G1 X101.918 Y99.404 E8.96637
G1 X102.661 Y98.957 E8.99521
G1 X103.548 Y98.535 E9.02788
G1 X105.449 Y97.751 E9.09627
G1 X106.265 Y97.458 E9.12511
G1 X107.204 Y97.221 E9.15732
G1 X109.225 Y96.82 E9.22585
G1 X110.082 Y96.69 E9.25468
G1 X111.063 Y96.64 E9.28735
G1 X113.119 Y96.642 E9.35573
G1 X113.985 Y96.683 E9.38457
G1 X114.954 Y96.825 E9.41714
G1 X116.973 Y97.229 E9.48562
G1 X117.815 Y97.438 E9.51448
G1 X118.731 Y97.763 E9.5468
G1 X120.633 Y98.552 E9.61529
G1 X121.417 Y98.921 E9.64411
G1 X122.257 Y99.421 E9.67663
G1 X123.966 Y100.564 E9.74501
G1 X124.663 Y101.079 E9.77383
G1 X125.041 Y101.412 E9.79059
G1 X125.541 Y100.981 E9.81254
G1 X126.247 Y100.477 E9.84139
G1 X126.996 Y100.041 E9.87022
G1 X127.782 Y99.676 E9.89904
G1 X128.599 Y99.384 E9.9279
G1 X129.439 Y99.169 E9.95674
G1 X130.295 Y99.032 E9.98557
G1 X131.525 Y98.975 E10.02653
G1 X131.863 Y98.981 E10.03777
G1 X131.992 Y98.899 E10.04285
G1 X132.873 Y98.401 E10.07651
G1 X133.014 Y98.331 E10.08175
G1 X133.014 Y98.33 E10.08178
G1 X133.393 Y97.55 E10.11063
G1 X133.843 Y96.809 E10.13946
G1 X134.359 Y96.112 E10.1683
G1 X134.937 Y95.466 E10.19714
G1 X135.572 Y94.876 E10.22596
G1 X136.114 Y94.45 E10.24889
G1 X138.279 Y92.874 E10.33796
G1 X139.003 Y92.397 E10.3668
G1 X139.767 Y91.988 E10.39562
G1 X140.566 Y91.652 E10.42445
G1 X141.393 Y91.39 E10.4533
G1 X142.24 Y91.206 E10.48213
G1 X143.1 Y91.101 E10.51095
G1 X143.811 Y91.074 E10.53461
G1 X146.485 Y91.074 E10.62355
G1 X147.351 Y91.114 E10.65238
G1 X148.21 Y91.234 E10.68123
G1 X149.054 Y91.432 E10.71006
G1 X149.876 Y91.707 E10.73889
G1 X150.669 Y92.057 E10.76772
G1 X151.427 Y92.478 E10.79656
G1 X152.017 Y92.874 E10.8202
G1 X154.182 Y94.45 E10.90926
G1 X154.859 Y94.992 E10.93811
G1 X155.483 Y95.594 E10.96695
G1 X156.048 Y96.251 E10.99577
G1 X156.551 Y96.958 E11.02463
G1 X156.987 Y97.707 E11.05345
G1 X157.351 Y98.494 E11.08229
G1 X157.589 Y99.141 E11.10522
G1 X157.713 Y99.523 E11.11858
G1 X157.963 Y99.705 E11.12886
G1 X158.64 Y100.247 E11.15771
G1 X159.264 Y100.849 E11.18655
G1 X159.829 Y101.506 E11.21537
G1 X160.332 Y102.213 E11.24423
G1 X160.768 Y102.962 E11.27305
G1 X161.132 Y103.749 E11.30189
G1 X161.414 Y104.536 E11.3297
G1 X162.308 Y107.436 E11.43063
G1 X162.525 Y108.275 E11.45945
G1 X162.663 Y109.131 E11.48829
G1 X162.723 Y109.996 E11.51713
G1 X162.702 Y110.863 E11.54598
G1 X162.602 Y111.724 E11.5748
G1 X162.422 Y112.572 E11.60364
G1 X162.267 Y113.104 E11.62207
G1 X160.783 Y117.681 E11.7821
G1 X160.478 Y118.493 E11.81095
G1 X160.099 Y119.273 E11.83979
G1 X159.65 Y120.014 E11.86861
G1 X159.314 Y120.469 E11.88742
G1 X158.864 Y121.158 E11.91479
G1 X158.326 Y121.837 E11.94361
G1 X157.817 Y122.377 E11.96829
G1 X157.044 Y123.135 E12.0043
G1 X156.398 Y123.712 E12.03311
G1 X155.767 Y124.183 E12.0593
G1 X151.176 Y127.321 E12.24425
G1 X150.439 Y127.777 E12.27308
G1 X149.662 Y128.163 E12.30194
G1 X149.233 Y128.329 E12.31724
G1 X148.996 Y128.456 E12.32618
G1 X148.197 Y128.793 E12.35502
G1 X147.37 Y129.054 E12.38386
G1 X147.157 Y129.1 E12.39111
G1 X146.464 Y129.336 E12.41546
G1 X146.338 Y129.366 E12.41977
G1 X145.771 Y129.593 E12.44008
G1 X145.356 Y129.716 E12.45448
G1 X145.019 Y129.875 E12.46687
G1 X144.203 Y130.17 E12.49573
G1 X143.719 Y130.297 E12.51238
G1 X143.106 Y130.538 E12.53428
G1 X142.274 Y130.781 E12.56311
G1 X141.423 Y130.946 E12.59194
G1 X141.19 Y130.969 E12.59973
G1 X141.024 Y131.05 E12.60587
G1 X140.212 Y131.354 E12.63471
G1 X140.019 Y131.407 E12.64137
G1 X139.727 Y131.547 E12.65214
G1 X138.914 Y131.849 E12.68098
G1 X138.077 Y132.075 E12.70982
G1 X137.817 Y132.12 E12.7186
G1 X137.067 Y132.34 E12.74459
G1 X136.216 Y132.507 E12.77344
G1 X135.982 Y132.531 E12.78126
G1 X135.871 Y132.555 E12.78504
G1 X135.634 Y132.629 E12.7933
G1 X135.228 Y132.801 E12.80796
G1 X134.401 Y133.062 E12.8368
G1 X133.554 Y133.246 E12.86563
G1 X132.693 Y133.352 E12.89449
G1 X131.827 Y133.378 E12.9233
G1 X130.962 Y133.324 E12.95213
G1 X130.105 Y133.19 E12.98098
G1 X129.264 Y132.978 E13.00983
G1 X128.447 Y132.689 E13.03865
G1 X127.659 Y132.327 E13.06749
G1 X126.909 Y131.893 E13.09631
G1 X126.201 Y131.392 E13.12516
G1 X126.127 Y131.328 E13.12841
G1 X125.565 Y131.89 E13.15485
G1 X124.924 Y132.474 E13.18369
G1 X124.13 Y133.065 E13.21661
G1 X122.415 Y134.207 E13.28514
G1 X121.672 Y134.654 E13.31398
G1 X120.793 Y135.071 E13.34634
G1 X118.89 Y135.857 E13.41482
G1 X118.075 Y136.151 E13.44364
G1 X117.128 Y136.39 E13.47612
G1 X115.108 Y136.79 E13.54461
G1 X114.251 Y136.919 E13.57344
G1 X113.273 Y136.969 E13.60601
G1 X111.218 Y136.967 E13.67436
G1 X110.352 Y136.926 E13.70319
G1 X109.387 Y136.785 E13.73563
G1 X107.368 Y136.382 E13.80411
G1 X106.527 Y136.173 E13.83293
G1 X105.604 Y135.846 E13.8655
G1 X103.701 Y135.056 E13.93403
G1 X102.916 Y134.687 E13.96288
G1 X102.076 Y134.185 E13.99543
G1 X100.37 Y133.043 E14.06371
G1 X99.403 Y132.301 E14.10425
G1 X99.391 Y132.291 E14.10477
G1 X99.371 Y132.345 E14.10668
G1 X98.991 Y133.124 E14.13551
G1 X98.541 Y133.865 E14.16434
G1 X98.025 Y134.562 E14.19319
G1 X97.447 Y135.208 E14.22202
G1 X96.812 Y135.798 E14.25085
G1 X96.271 Y136.223 E14.27373
G1 X94.455 Y137.545 E14.34844
G1 X93.732 Y138.022 E14.37725
G1 X92.967 Y138.431 E14.4061
G1 X92.168 Y138.767 E14.43493
G1 X91.341 Y139.029 E14.46378
G1 X90.494 Y139.213 E14.49261
G1 X89.634 Y139.318 E14.52143
G1 X88.923 Y139.345 E14.54509
G1 X86.679 Y139.345 E14.61973
G1 X85.813 Y139.305 E14.64856
G1 X84.954 Y139.185 E14.67741
G1 X84.11 Y138.987 E14.70625
G1 X83.288 Y138.712 E14.73507
G1 X82.923 Y138.551 E14.74834
G1 X82.876 Y138.567 E14.74999
G1 X82.032 Y138.766 E14.77884
G1 X81.168 Y138.887 E14.80785
G1 X80.551 Y138.944 E14.82846
G1 X79.881 Y139.089 E14.85126
G1 X79.02 Y139.194 E14.88011
G1 X78.317 Y139.22 E14.90351
G1 X77.064 Y139.22 E14.94518
G1 X76.198 Y139.18 E14.97402
G1 X75.339 Y139.06 E15.00287
G1 X74.495 Y138.862 E15.0317
G1 X73.673 Y138.587 E15.06053
G1 X72.88 Y138.237 E15.08936
G1 X72.122 Y137.816 E15.1182
G1 X71.531 Y137.419 E15.14188
G1 X70.516 Y136.68 E15.18364
G1 X69.84 Y136.138 E15.21246
G1 X69.216 Y135.536 E15.24129
G1 X68.65 Y134.879 E15.27014
G1 X68.147 Y134.173 E15.29897
G1 X67.712 Y133.423 E15.32781
G1 X67.347 Y132.637 E15.35663
G1 X67.11 Y131.988 E15.37961
G1 X66.723 Y130.798 E15.42123
G1 X66.493 Y129.962 E15.45007
G1 X66.341 Y129.109 E15.47889
G1 X66.269 Y128.245 E15.50772
G1 X66.276 Y127.378 E15.53656
G1 X66.363 Y126.515 E15.56541
G1 X66.53 Y125.664 E15.59425
G1 X66.723 Y124.984 E15.61776
G1 X67.11 Y123.794 E15.65938
G1 X67.416 Y122.983 E15.68821
G1 X67.795 Y122.203 E15.71706
G1 X68.244 Y121.462 E15.74587
G1 X68.76 Y120.765 E15.77472
G1 X69.338 Y120.119 E15.80355
G1 X69.973 Y119.529 E15.83238
G1 X70.516 Y119.102 E15.85535
G1 X71.531 Y118.363 E15.89711
G1 X72.255 Y117.885 E15.92597
G1 X73.019 Y117.477 E15.95477
G1 X73.818 Y117.14 E15.98362
G1 X74.645 Y116.879 E16.01246
G1 X75.492 Y116.694 E16.0413
G1 X76.353 Y116.589 E16.07014
G1 X76.481 Y116.584 E16.0744
G1 X76.587 Y116.499 E16.07892
G1 X77.31 Y116.022 E16.10773
G1 X78.074 Y115.613 E16.13656
G1 X78.103 Y115.601 E16.1376
G1 X78.319 Y115.406 E16.14728
G1 X78.839 Y115.009 E16.16904
G1 X80.657 Y113.717 E16.24322
G1 X80.856 Y113.589 E16.25109
G1 X81.435 Y111.811 E16.31328
